X:63
T: Fang fengzheng
N: C1561
O: China, Liaoning
S: III, 287]
R: Xiaodiao]
M: 2/4
L: 1/16
K: G
A2A2G2EG | A8 | A2A2E2G2 | A8
A4A2e2 | d4d2d2 | A2d2B2A2 | G2G2E2DE | G4G2G2
A2A4A2 | e4d4 | E3GA4 | G4G4
A2A2A2A2 | G2A2d2B2 | A4G2E2 | D2D2C2E2 | D8
A2AGE2G2 | A2G2A4 | A2AGE2G2 | A2G2A4
A2A2A2A2 | G2A2d2B2 | A4G2E2 | D2D2C2E2 | D8

